svgs/sharp-light/flag-swallowtail.svg

<svg xmlns="http://www.w3.org/2000/svg" viewBox="0 0 448 512"><!--! Font Awesome Pro 6.6.0 by @fontawesome - https://fontawesome.com License - https://fontawesome.com/license (Commercial License) Copyright 2024 Fonticons, Inc. --><path d="M32 16L32 0 0 0 0 16 0 32 0 64 0 320l0 32L0 496l0 16 32 0 0-16 0-144 378.7 0 37.3 0-19.2-32L352 192 428.8 64 448 32l-37.3 0L32 32l0-16zm0 48l359.5 0L324.6 175.5 314.7 192l9.9 16.5L391.5 320 32 320 32 64z"/></svg>

<svg xmlns="http://www.w3.org/2000/svg" viewBox="0 0 448 512"><!--! Font Awesome Pro 6.4.2 by @fontawesome - https://fontawesome.com License - https://fontawesome.com/license (Commercial License) Copyright 2023 Fonticons, Inc. --><path d="M32 16V0H0V16 32 64 320v32V496v16H32V496 352H410.7 448l-19.2-32L352 192 428.8 64 448 32H410.7 32V16zm0 48H391.5L324.6 175.5 314.7 192l9.9 16.5L391.5 320H32V64z"/></svg>
